!!!OTL: 737. Entschwundenes Glueck.
!!!ARE: Europa, Mitteleuropa, Deutschland, Hessen, Oberhessen; Nassau
!!!SCT: E0737
!!!TXL: @@DE
!!!YEM: Copyright 1995, estate of Helmut Schaffrath.
**kern	**text
*ICvox	*
*M3/4	*
*k[b-e-a-]	*
*E-:	*
!LO:TX:a:t=Mäßig langsam.	!
!LO:TX:a:t=Mehrfach mündlich aus dem Naſſauiſchen und Oberheſſen 1880-1890.	!
{8e-L	Einſt
8fJ	.
=1	=1
4g	lebt
4g	ich
8fL	ſo
8gJ	.
=2	=2
4a-	glück-
4a-}	-lich,
{8fL	einſt
8gJ	.
=3	=3
8a-L	lebt
8ccJ	.
4cc	ich
8ccL	ſo
8b-J	.
=4	=4
2b-}	froh,
{8e-L	da
8gJ	.
=5	=5
4b-	wohn-
4b-	-te
8ccL	mein
8b-J	.
=6	=6
8b-L	Lieb-
8a-J	.
4f}	-chen
{4b-	in_dem
=7	=7
4.dd	Hüt-
8cc	-chen
8b-L	von
8a-J	.
=8	=8
2g}	Stroh.
{8e-L	da
8gJ	.
=9	=9
4b-	wohn-
4b-	-te
8ccL	mein
8b-J	.
=10	=10
8b-L	Lieb-
8a-J	.
4f}	-chen
{4b-	in_dem
=11	=11
4.dd	Hüt-
8cc	-chen
8b-L	von
8a-J	.
=12	=12
2g}	Stroh.
==	==
!!!AGN: Liebes - Lied, Leid, Klage, Tod
!!!ONB: ESAC (Essen Associative Code) Database: ERK2
!!!AMT: simple triple
!!!AIN: vox
!!!EED: Helmut Schaffrath
!!!EEV: 1.0
!!!GTL: Liebeslieder [Neuere (aus dem 18. bis 19. Jahrh.) - Liebesleid] 678-740
!!!URL-scan: https://rosdok.uni-rostock.de/mcrviewer/recordIdentifier/rosdok_ppn745177662/iview2/phys_0542.iview2?x=193.8995864193107&y=629.9971456828061&scale=0.7029437510502773&rotation=0&layout=singlePageLayout
!!!ENC: Anna Maria Matuszewska
!!!EEV: 2024/12/16
*-	*-
